X: 16
T: MARGARET'S WALTZ
C: Pat Shaw
S: "Community Dances Manual 6", EFDSS, Jack Hamilton ed., 1981 p.15
R: waltz
Z: 2010 John Chambers <jc:trillian.mit.edu>
M: 3/4
L: 1/8
K: A
"A"|: c2 |\
"A"E3 F AB | "A"c4 c2 | "D"BA F2 A2 | "E7"B4 c2 |\
"A"E3 F AB | "A"c3 d e2 | "E7"c4 B2 | "A"A4 :|
"B"[|] cd |\
"C#m"e3 f ge | "F#m"a4 a2 | "D"fe d2 f2 | "E7"e4 cB |\
"F#m"A3 B cd | "A"e4 c2 | "D"BA F2 A2 | "E7"B4 cd |
"C#m"e3 f ge | "F#m"a3 g f2 | "Bm"e2 d2 c2 | "E7"B4 c2 |\
"A"E3 F AB | "A"c3 d e2 | "E7"c4 B2 | "A"A4 :|

%%sep 2 1 500
%%sep 1 1 500

